!!!OTL: Ach Elslein
!!!ARE: Europa, Mitteleuropa, Deutschland
!!!SCT: L0083B
!!!YEM: Copyright 1995, estate of Helmut Schaffrath.
**kern
*ICvox
*Ivox
*M3/4
*k[]
*a:
{4a
=1
2a
4ccn
=2
2b
4a
=3
4.b
8ccn
4dd
=4
4ee
4r}
{4ee
=5
2dd
4b
=6
4ccn
2a
=7
2gn}
{4gn
=8
2b
4ccn
=9
2dd
4ccn
=10
4.a
8b
4ccn
=11
4b
4r}
{4a
=12
4gn
2e
=13
2b
4g#
=14
2a}
{4a
=15
4gn
2e
=16
2b
4g#
=17
2a}
==
!!!AGN: Lied
!! Judenkunig, Lautentabulatur 1523
!!!ONB: ESAC (Essen Associative Code) Database: ERK5
!!!AMT: simple triple
!!!AIN: vox
!!!EED: Helmut Schaffrath
!!!EEV: 1.0
*-
